icons/svg/subway/subway_kazan.svg

<?xml version="1.0" encoding="UTF-8" standalone="no"?>
<svg
   xmlns:dc="http://purl.org/dc/elements/1.1/"
   xmlns:cc="http://creativecommons.org/ns#"
   xmlns:rdf="http://www.w3.org/1999/02/22-rdf-syntax-ns#"
   xmlns:svg="http://www.w3.org/2000/svg"
   xmlns="http://www.w3.org/2000/svg"
   xmlns:sodipodi="http://sodipodi.sourceforge.net/DTD/sodipodi-0.dtd"
   xmlns:inkscape="http://www.inkscape.org/namespaces/inkscape"
   width="16"
   height="16"
   id="svg2"
   version="1.1"
   inkscape:version="0.91 r"
   sodipodi:docname="subway_kazan.svg">
  <defs
     id="defs13" />
  <sodipodi:namedview
     pagecolor="#ffffff"
     bordercolor="#666666"
     borderopacity="1"
     objecttolerance="10"
     gridtolerance="10"
     guidetolerance="10"
     inkscape:pageopacity="0"
     inkscape:pageshadow="2"
     inkscape:window-width="1920"
     inkscape:window-height="1004"
     id="namedview11"
     showgrid="true"
     inkscape:zoom="52.082758"
     inkscape:cx="10.635839"
     inkscape:cy="7.9369422"
     inkscape:window-x="1680"
     inkscape:window-y="0"
     inkscape:window-maximized="1"
     inkscape:current-layer="svg2"
     showguides="false">
    <sodipodi:guide
       position="0,0"
       orientation="0,580"
       id="guide2989" />
    <sodipodi:guide
       position="580,0"
       orientation="-580,0"
       id="guide2991" />
    <sodipodi:guide
       position="580,580"
       orientation="0,-580"
       id="guide2993" />
    <sodipodi:guide
       position="0,580"
       orientation="580,0"
       id="guide2995" />
    <sodipodi:guide
       position="0,0"
       orientation="0,580"
       id="guide2997" />
    <sodipodi:guide
       position="580,0"
       orientation="-580,0"
       id="guide2999" />
    <sodipodi:guide
       position="580,580"
       orientation="0,-580"
       id="guide3001" />
    <sodipodi:guide
       position="0,580"
       orientation="580,0"
       id="guide3003" />
    <inkscape:grid
       type="xygrid"
       id="grid3013"
       empspacing="5"
       visible="true"
       enabled="true"
       snapvisiblegridlinesonly="true" />
  </sodipodi:namedview>
  <metadata
     id="metadata2975">image/svg+xmlen<rdf:RDF>
  <cc:Work
     rdf:about="">
    <dc:format>image/svg+xml</dc:format>
    <dc:type
       rdf:resource="http://purl.org/dc/dcmitype/StillImage" />
    <dc:title />
  </cc:Work>
</rdf:RDF>
</metadata>
  <circle
     style="color:#000000;clip-rule:nonzero;display:inline;overflow:visible;visibility:visible;opacity:1;isolation:auto;mix-blend-mode:normal;color-interpolation:sRGB;color-interpolation-filters:linearRGB;solid-color:#000000;solid-opacity:1;fill:#fefefe;fill-opacity:1;fill-rule:nonzero;stroke-width:0.11437072;stroke-linecap:butt;stroke-linejoin:miter;stroke-miterlimit:4;stroke-dasharray:none;stroke-dashoffset:0;stroke-opacity:1;color-rendering:auto;image-rendering:auto;shape-rendering:auto;text-rendering:auto;enable-background:accumulate"
     cx="8"
     cy="8"
     r="4.496438"
     id="circle4-7" />
  <path
     inkscape:connector-curvature="0"
     style="fill:none;stroke:#fefefe;stroke-width:1.5124923;stroke-opacity:1"
     d="m 6.3640387,5.6849607 0,2.9941174 a 1.6359613,1.6359613 0 0 0 3.2719226,0 l 0,-2.9941174"
     id="path6" />
  <path
     inkscape:connector-curvature="0"
     style="fill:#acbaac;fill-opacity:1;fill-rule:nonzero;stroke:none;stroke-linecap:round"
     d="m 10.694542,5.3054566 -0.09314,-0.090309 -0.09031,-0.081842 -0.09314,-0.081843 -0.09031,-0.073376 -0.09596,-0.073376 -0.09595,-0.067733 -0.09877,-0.067732 -0.095954,-0.059265 -0.10442,-0.062088 L 9.7350071,4.5942714 9.6305871,4.5406501 9.5289891,4.4954958 9.4217473,4.4503411 9.3145044,4.4108308 9.2044402,4.3741426 9.097198,4.3430988 8.9645565,4.306411 8.8319146,4.2753671 8.6964509,4.2471454 8.5609872,4.2273902 8.419879,4.2076351 l -0.138286,-0.00847 -0.1411081,-0.00847 -0.1411082,0 -0.1015978,0 -0.1693297,0.00565 L 7.5647637,4.2104572 7.4039003,4.2302124 7.2486814,4.2584341 6.9749315,4.3176992 6.7124703,4.3995421 6.4556535,4.498318 6.3314784,4.5575832 6.2101253,4.622493 5.9702415,4.7607788 5.8517105,4.8369774 5.7388241,4.9216425 5.6259376,5.0091292 5.5158732,5.1022608 5.408631,5.2010363 5.3042109,5.3054566 5.1800358,5.4296315 5.064327,5.5594513 4.9570849,5.6920928 l -0.098776,0.1382858 -0.095954,0.1354642 -0.087487,0.1439301 -0.07902,0.1439302 -0.070554,0.149575 -0.067732,0.1467523 -0.059265,0.155219 -0.050799,0.1552189 -0.042332,0.1608633 -0.036688,0.1608633 -0.031044,0.1665077 -0.022577,0.1665075 -0.014111,0.172152 -0.011289,0.2116623 0,0.1015978 0.00282,0.206018 0.016933,0.2031957 0.022578,0.1975514 0.036689,0.1947297 0.022578,0.1100641 0.028222,0.1128868 0.028222,0.1072417 0.036689,0.1100648 0.036689,0.1044197 0.042333,0.1072428 0.042332,0.1015978 0.0508,0.1044198 0.047976,0.098776 0.056443,0.1015979 0.056443,0.095953 0.062087,0.098776 0.062087,0.09313 0.070554,0.09595 0.1495745,0.186262 0.087487,0.101604 0.095954,0.104422 0.059265,0.05927 0.1834407,0.174975 0.095954,0.08184 0.098776,0.07902 0.098776,0.07337 0.1015978,0.07055 0.1015978,0.06774 0.1072417,0.06491 0.1044198,0.05927 0.1072417,0.05644 0.1072417,0.0508 0.1128865,0.0508 0.1100643,0.04233 0.1157088,0.04233 0.2342396,0.07337 0.1185308,0.02822 0.121353,0.0254 0.2511725,0.03952 0.1269974,0.0141 0.1298194,0.01129 0.1298195,0.0057 0.1354639,0.0028 0.00282,0 0.0508,-0.0028 0.053621,0 0.1072417,-0.0028 0.2088401,-0.01693 0.1015978,-0.01411 0.1044197,-0.01129 0.2031956,-0.03387 0.062087,-0.01693 0.014111,-0.0057 0.016933,-0.0028 0.033866,-0.0057 0.1298194,-0.03669 0.1269974,-0.03952 0.062087,-0.02257 0.031046,-0.01129 0.033868,-0.0085 0.1213532,-0.0508 0.059265,-0.02822 0.062087,-0.0254 0.1185308,-0.05927 0.028224,-0.01693 0.014109,-0.0085 0.016931,-0.0057 0.062087,-0.02822 0.1128865,-0.07056 0.1128871,-0.07055 0.05362,-0.03952 0.05644,-0.03669 0.112887,-0.07902 0.107241,-0.08749 0.10724,-0.08749 0.0508,-0.04797 0.05362,-0.04515 0.104422,-0.09596 0.05644,-0.05927 0.09314,-0.101593 0.09031,-0.101603 0.118531,-0.152396 0.05644,-0.07902 0.05644,-0.0762 0.101592,-0.1580409 0.02257,-0.042334 0.0254,-0.039512 0.04798,-0.079021 0.04234,-0.084665 0.0085,-0.022575 0.01129,-0.019753 0.02257,-0.039512 0.03669,-0.084665 0.03952,-0.081843 0.03387,-0.087487 0.03387,-0.084665 0.05927,-0.1749741 0.03669,-0.1354637 0.03105,-0.1354641 0.01128,-0.070554 0.01412,-0.067732 0.01129,-0.070554 0.0141,-0.067732 0.0057,-0.073376 0,-0.019755 0.0028,-0.016933 0.0057,-0.033866 0.0057,-0.073376 0,-0.019755 0.0028,-0.016933 0.0057,-0.033865 0.0085,-0.1467525 0,-0.073376 0,-0.036689 0.0028,-0.033866 0,-0.00282 -0.0057,-0.1919071 -0.01129,-0.1834407 -0.02251,-0.1834946 -0.0254,-0.1749741 -0.03104,-0.1411081 -0.03105,-0.135464 L 11.642945,6.8518718 11.600611,6.7220523 11.552639,6.5922329 11.499018,6.4652357 11.43975,6.3382382 11.380481,6.2168853 11.309927,6.09271 11.236554,5.9741794 11.157533,5.8556482 11.075693,5.7427618 10.988205,5.6298751 10.895069,5.5198109 10.796295,5.4097464 10.694692,5.3053266 Z m -2.173065,3.0846241 -0.2427061,0.00282 -0.2681055,0.2963273 -0.014111,-0.014111 -0.014111,0.014111 -0.2681054,-0.2963273 -0.242706,-0.00282 -0.6857857,1.4985694 -1.8061844,0 1.763852,-4.4561964 1.2530404,1.8174731 1.2558623,-1.8174731 1.7610301,4.4561964 -1.803362,0 -0.688608,-1.4985694 z"
     id="path2180" />
  <path
     inkscape:connector-curvature="0"
     style="fill:#04562c;fill-opacity:1;fill-rule:nonzero;stroke:none;stroke-linecap:round"
     d="M 8.521477,8.3900807 7.9965546,7.2499268 7.4716323,8.3900807 l 0.242706,0.00282 0.2681054,0.2963273 0.014111,-0.014111 0.014111,0.014111 0.2681055,-0.2963273 z"
     id="path2182" />
  <path
     inkscape:connector-curvature="0"
     style="fill:#04562c;fill-opacity:1;fill-rule:nonzero;stroke:none;stroke-linecap:round"
     d="m 8.521477,8.3900807 0.688608,1.4985694 1.803362,0 L 9.2524169,5.4324537 7.9965546,7.2499268 Z"
     id="path2184" />
  <path
     inkscape:connector-curvature="0"
     style="fill:#04562c;fill-opacity:1;fill-rule:nonzero;stroke:none;stroke-linecap:round"
     d="m 7.9965546,7.2499268 -1.2530404,-1.8174731 -1.763852,4.4561964 1.8061844,0 0.6857857,-1.4985694 z"
     id="path2186" />
  <g
     id="g4198"
     style="stroke-width:0.2;stroke-miterlimit:4;stroke-dasharray:none">
    <path
       id="path2190"
       d="m 7.9816801,8.6844034 0.014926,0.016128 0.014729,-0.016344"
       style="fill:none;stroke:#fefefe;stroke-width:0.2;stroke-linecap:round;stroke-linejoin:round;stroke-dasharray:none;stroke-opacity:1;stroke-miterlimit:4"
       inkscape:connector-curvature="0" />
    <path
       id="path2192"
       d="M 8.521477,8.3900807 8.2787709,8.3929029 8.0106654,8.6892302"
       style="fill:none;stroke:#fefefe;stroke-width:0.2;stroke-linecap:round;stroke-linejoin:round;stroke-dasharray:none;stroke-opacity:1;stroke-miterlimit:4"
       inkscape:connector-curvature="0" />
    <path
       id="path2194"
       d="m 7.4716323,8.3900807 0.242706,0.00282 0.2681054,0.2963273"
       style="fill:none;stroke:#fefefe;stroke-width:0.2;stroke-linecap:round;stroke-linejoin:round;stroke-dasharray:none;stroke-opacity:1;color:#000000;clip-rule:nonzero;display:inline;overflow:visible;visibility:visible;opacity:1;isolation:auto;mix-blend-mode:normal;color-interpolation:sRGB;color-interpolation-filters:linearRGB;solid-color:#000000;solid-opacity:1;fill-opacity:1;fill-rule:nonzero;stroke-miterlimit:4;stroke-dashoffset:0;filter-blend-mode:normal;filter-gaussianBlur-deviation:0;color-rendering:auto;image-rendering:auto;shape-rendering:auto;text-rendering:auto;enable-background:accumulate"
       inkscape:connector-curvature="0" />
    <path
       id="path2196"
       d="M 7.9965546,7.2499268 8.521477,8.3900807"
       style="fill:none;stroke:#fefefe;stroke-width:0.2;stroke-linecap:round;stroke-linejoin:round;stroke-dasharray:none;stroke-opacity:1;color:#000000;clip-rule:nonzero;display:inline;overflow:visible;visibility:visible;opacity:1;isolation:auto;mix-blend-mode:normal;color-interpolation:sRGB;color-interpolation-filters:linearRGB;solid-color:#000000;solid-opacity:1;fill-opacity:1;fill-rule:nonzero;stroke-miterlimit:4;stroke-dashoffset:0;filter-blend-mode:normal;filter-gaussianBlur-deviation:0;color-rendering:auto;image-rendering:auto;shape-rendering:auto;text-rendering:auto;enable-background:accumulate"
       inkscape:connector-curvature="0" />
    <path
       id="path2198"
       d="M 7.9965546,7.2499268 7.4716323,8.3900807"
       style="fill:none;stroke:#fefefe;stroke-width:0.2;stroke-linecap:round;stroke-linejoin:round;stroke-dasharray:none;stroke-opacity:1;color:#000000;clip-rule:nonzero;display:inline;overflow:visible;visibility:visible;opacity:1;isolation:auto;mix-blend-mode:normal;color-interpolation:sRGB;color-interpolation-filters:linearRGB;solid-color:#000000;solid-opacity:1;fill-opacity:1;fill-rule:nonzero;stroke-miterlimit:4;stroke-dashoffset:0;filter-blend-mode:normal;filter-gaussianBlur-deviation:0;color-rendering:auto;image-rendering:auto;shape-rendering:auto;text-rendering:auto;enable-background:accumulate"
       inkscape:connector-curvature="0" />
    <path
       id="path2200"
       d="M 4.9796622,9.8886501 6.7435142,5.4324537 7.9965546,7.2499268"
       style="fill:none;stroke:#fefefe;stroke-width:0.2;stroke-linecap:round;stroke-linejoin:round;stroke-dasharray:none;stroke-opacity:1;color:#000000;clip-rule:nonzero;display:inline;overflow:visible;visibility:visible;opacity:1;isolation:auto;mix-blend-mode:normal;color-interpolation:sRGB;color-interpolation-filters:linearRGB;solid-color:#000000;solid-opacity:1;fill-opacity:1;fill-rule:nonzero;stroke-miterlimit:4;stroke-dashoffset:0;filter-blend-mode:normal;filter-gaussianBlur-deviation:0;color-rendering:auto;image-rendering:auto;shape-rendering:auto;text-rendering:auto;enable-background:accumulate"
       inkscape:connector-curvature="0" />
    <path
       id="path2202"
       d="m 6.7858466,9.8886501 -1.8061844,0"
       style="fill:none;stroke:#fefefe;stroke-width:0.2;stroke-linecap:round;stroke-linejoin:round;stroke-dasharray:none;stroke-opacity:1;stroke-miterlimit:4"
       inkscape:connector-curvature="0" />
    <path
       id="path2204"
       d="m 9.210085,9.8886501 1.803362,0"
       style="fill:none;stroke:#fefefe;stroke-width:0.2;stroke-linecap:round;stroke-linejoin:round;stroke-dasharray:none;stroke-opacity:1;stroke-miterlimit:4"
       inkscape:connector-curvature="0" />
    <path
       id="path2206"
       d="M 11.013447,9.8886501 9.2524169,5.4324537 7.9965546,7.2499268"
       style="fill:none;stroke:#fefefe;stroke-width:0.2;stroke-linecap:round;stroke-linejoin:round;stroke-dasharray:none;stroke-opacity:1;stroke-miterlimit:4"
       inkscape:connector-curvature="0" />
    <path
       id="path2208"
       d="M 8.521477,8.3900807 9.210085,9.8886501"
       style="fill:none;stroke:#fefefe;stroke-width:0.2;stroke-linecap:round;stroke-linejoin:round;stroke-dasharray:none;stroke-opacity:1;color:#000000;clip-rule:nonzero;display:inline;overflow:visible;visibility:visible;opacity:1;isolation:auto;mix-blend-mode:normal;color-interpolation:sRGB;color-interpolation-filters:linearRGB;solid-color:#000000;solid-opacity:1;fill-opacity:1;fill-rule:nonzero;stroke-miterlimit:4;stroke-dashoffset:0;filter-blend-mode:normal;filter-gaussianBlur-deviation:0;color-rendering:auto;image-rendering:auto;shape-rendering:auto;text-rendering:auto;enable-background:accumulate"
       inkscape:connector-curvature="0" />
    <path
       id="path2210"
       d="M 7.4716323,8.3900807 6.7858466,9.8886501"
       style="fill:none;stroke:#fefefe;stroke-width:0.2;stroke-linecap:round;stroke-linejoin:round;stroke-dasharray:none;stroke-opacity:1;color:#000000;clip-rule:nonzero;display:inline;overflow:visible;visibility:visible;opacity:1;isolation:auto;mix-blend-mode:normal;color-interpolation:sRGB;color-interpolation-filters:linearRGB;solid-color:#000000;solid-opacity:1;fill-opacity:1;fill-rule:nonzero;stroke-miterlimit:4;stroke-dashoffset:0;filter-blend-mode:normal;filter-gaussianBlur-deviation:0;color-rendering:auto;image-rendering:auto;shape-rendering:auto;text-rendering:auto;enable-background:accumulate"
       inkscape:connector-curvature="0" />
  </g>
  <circle
     r="3.7978034"
     cy="8"
     cx="8"
     style="opacity:1;fill:none;fill-opacity:1;stroke:#04562c;stroke-width:0.3650817;stroke-linecap:round;stroke-linejoin:round;stroke-miterlimit:4;stroke-dasharray:none;stroke-dashoffset:0;stroke-opacity:1"
     id="path5139" />
</svg>

<svg width="16" height="16" viewBox="0 0 16 16" fill="none" xmlns="http://www.w3.org/2000/svg">
<path d="M7.99998 12.4964C10.4833 12.4964 12.4964 10.4833 12.4964 8.00001C12.4964 5.51669 10.4833 3.50357 7.99998 3.50357C5.51666 3.50357 3.50354 5.51669 3.50354 8.00001C3.50354 10.4833 5.51666 12.4964 7.99998 12.4964Z" fill="#FEFEFE"/>
<path d="M6.36401 5.68497V8.67908C6.36401 9.11297 6.53637 9.52908 6.84318 9.83588C7.14998 10.1427 7.56609 10.315 7.99998 10.315C8.43386 10.315 8.84997 10.1427 9.15677 9.83588C9.46358 9.52908 9.63594 9.11297 9.63594 8.67908V5.68497" stroke="#FEFEFE" stroke-width="1.51249"/>
<path d="M10.6945 5.30547L10.6014 5.21516L10.5111 5.13331L10.4179 5.05147L10.3276 4.9781L10.2317 4.90472L10.1357 4.83699L10.037 4.76925L9.941 4.70999L9.83658 4.6479L9.735 4.59428L9.63058 4.54066L9.52899 4.4955L9.42174 4.45035L9.3145 4.41084L9.20444 4.37415L9.09719 4.34311L8.96455 4.30642L8.83191 4.27538L8.69645 4.24715L8.56098 4.2274L8.41988 4.20764L8.28159 4.19917L8.14048 4.1907H7.99937H7.89778L7.72845 4.19635L7.56476 4.21047L7.4039 4.23022L7.24868 4.25844L6.97493 4.31771L6.71247 4.39955L6.45565 4.49833L6.33147 4.55759L6.21012 4.6225L5.97024 4.76079L5.85171 4.83699L5.73882 4.92165L5.62593 5.00914L5.51587 5.10227L5.40863 5.20105L5.30421 5.30547L5.18003 5.42964L5.06432 5.55946L4.95708 5.6921L4.8583 5.83039L4.76235 5.96585L4.67486 6.10978L4.59584 6.25371L4.52529 6.40329L4.45756 6.55004L4.39829 6.70526L4.34749 6.86048L4.30516 7.02134L4.26847 7.1822L4.23743 7.34871L4.21485 7.51522L4.20074 7.68737L4.18945 7.89903V8.00063L4.19227 8.20665L4.20921 8.40984L4.23178 8.6074L4.26847 8.80213L4.29105 8.91219L4.31927 9.02508L4.3475 9.13232L4.38418 9.24238L4.42087 9.3468L4.46321 9.45405L4.50554 9.55564L4.55634 9.66006L4.60431 9.75884L4.66076 9.86044L4.7172 9.95639L4.77929 10.0552L4.84137 10.1483L4.91193 10.2442L5.0615 10.4305L5.14899 10.5321L5.24494 10.6365L5.30421 10.6958L5.48765 10.8708L5.5836 10.9526L5.68238 11.0316L5.78116 11.105L5.88275 11.1756L5.98435 11.2433L6.09159 11.3082L6.19601 11.3675L6.30325 11.4239L6.4105 11.4747L6.52338 11.5255L6.63345 11.5678L6.74916 11.6102L6.9834 11.6835L7.10193 11.7118L7.22328 11.7372L7.47445 11.7767L7.60145 11.7908L7.73127 11.8021L7.86109 11.8078L7.99655 11.8106H7.99937L8.05017 11.8078H8.10379L8.21103 11.805L8.41987 11.788L8.52147 11.7739L8.62589 11.7626L8.82909 11.7288L8.89117 11.7118L8.90529 11.7061L8.92222 11.7033L8.95608 11.6976L9.0859 11.661L9.2129 11.6214L9.27499 11.5989L9.30603 11.5876L9.3399 11.5791L9.46126 11.5283L9.52052 11.5001L9.58261 11.4747L9.70114 11.4154L9.72936 11.3985L9.74347 11.39L9.7604 11.3843L9.82249 11.356L9.93538 11.2855L10.0483 11.2149L10.1019 11.1754L10.1583 11.1387L10.2712 11.0597L10.3785 10.9722L10.4857 10.8847L10.5365 10.8367L10.5901 10.7916L10.6945 10.6956L10.751 10.6364L10.8441 10.5348L10.9344 10.4332L11.053 10.2808L11.1094 10.2018L11.1658 10.1256L11.2674 9.96752L11.29 9.92518L11.3154 9.88567L11.3634 9.80665L11.4057 9.72198L11.4142 9.69941L11.4255 9.67966L11.4481 9.64014L11.4848 9.55548L11.5243 9.47364L11.5582 9.38615L11.592 9.30148L11.6513 9.12651L11.688 8.99105L11.719 8.85558L11.7303 8.78503L11.7444 8.7173L11.7557 8.64674L11.7698 8.57901L11.7755 8.50563V8.48588L11.7783 8.46895L11.784 8.43508L11.7897 8.3617V8.34195L11.7925 8.32502L11.7982 8.29115L11.8067 8.1444V8.07102V8.03433L11.8095 8.00047V7.99765L11.8038 7.80574L11.7925 7.6223L11.77 7.43881L11.7446 7.26383L11.7136 7.12272L11.6825 6.98726L11.6429 6.85188L11.6006 6.72206L11.5526 6.59224L11.499 6.46524L11.4397 6.33825L11.3805 6.21689L11.3099 6.09272L11.2366 5.97419L11.1575 5.85566L11.0757 5.74277L10.9882 5.62988L10.8951 5.51982L10.7963 5.40976L10.6947 5.30534L10.6945 5.30547ZM8.52147 8.39009L8.27877 8.39291L8.01066 8.68924L7.99655 8.67513L7.98244 8.68924L7.71433 8.39291L7.47163 8.39009L6.78584 9.88866H4.97966L6.74351 5.43246L7.99655 7.24994L9.25241 5.43246L11.0134 9.88866H9.21008L8.52147 8.39009V8.39009Z" fill="#ACBAAC"/>
<path d="M8.52146 8.39009L7.99654 7.24994L7.47162 8.39009L7.71432 8.39291L7.98243 8.68924L7.99654 8.67513L8.01065 8.68924L8.27876 8.39291L8.52146 8.39009Z" fill="#04562C"/>
<path d="M8.5215 8.39009L9.21011 9.88866H11.0135L9.25244 5.43246L7.99658 7.24994L8.5215 8.39009Z" fill="#04562C"/>
<path d="M7.99657 7.24994L6.74353 5.43246L4.97968 9.88866H6.78586L7.47165 8.39009L7.99657 7.24994Z" fill="#04562C"/>
<path d="M7.98169 8.68442L7.99662 8.70055L8.01134 8.6842" stroke="#FEFEFE" stroke-width="0.2" stroke-linecap="round" stroke-linejoin="round"/>
<path d="M8.52149 8.39011L8.27879 8.39293L8.01068 8.68926" stroke="#FEFEFE" stroke-width="0.2" stroke-linecap="round" stroke-linejoin="round"/>
<path d="M7.47162 8.39011L7.71432 8.39293L7.98243 8.68925" stroke="#FEFEFE" stroke-width="0.2" stroke-linecap="round" stroke-linejoin="round"/>
<path d="M7.99658 7.24994L8.5215 8.39009" stroke="#FEFEFE" stroke-width="0.2" stroke-linecap="round" stroke-linejoin="round"/>
<path d="M7.99654 7.24994L7.47162 8.39009" stroke="#FEFEFE" stroke-width="0.2" stroke-linecap="round" stroke-linejoin="round"/>
<path d="M4.97968 9.88866L6.74353 5.43246L7.99657 7.24994" stroke="#FEFEFE" stroke-width="0.2" stroke-linecap="round" stroke-linejoin="round"/>
<path d="M6.78586 9.88867H4.97968" stroke="#FEFEFE" stroke-width="0.2" stroke-linecap="round" stroke-linejoin="round"/>
<path d="M9.21008 9.88867H11.0134" stroke="#FEFEFE" stroke-width="0.2" stroke-linecap="round" stroke-linejoin="round"/>
<path d="M11.0135 9.88866L9.25244 5.43246L7.99658 7.24994" stroke="#FEFEFE" stroke-width="0.2" stroke-linecap="round" stroke-linejoin="round"/>
<path d="M8.52148 8.39011L9.21009 9.88868" stroke="#FEFEFE" stroke-width="0.2" stroke-linecap="round" stroke-linejoin="round"/>
<path d="M7.47167 8.39011L6.78589 9.88868" stroke="#FEFEFE" stroke-width="0.2" stroke-linecap="round" stroke-linejoin="round"/>
<path d="M8.00001 11.7978C10.0975 11.7978 11.7978 10.0975 11.7978 8.00001C11.7978 5.90254 10.0975 4.20221 8.00001 4.20221C5.90254 4.20221 4.20221 5.90254 4.20221 8.00001C4.20221 10.0975 5.90254 11.7978 8.00001 11.7978Z" stroke="#04562C" stroke-width="0.365082" stroke-linecap="round" stroke-linejoin="round"/>
</svg>
